X:1
T:James Gibb editions
T:Jesu corona Virginum - Thermignon
T:#
%%score { 1 | 2 } 3
L:1/8
Q:1/4=100
M:3/4
K:G
V:1 treble nm="Soprano I" snm="S"
V:2 treble 
V:3 treble nm="Alto" snm="A"
V:1
"^Jesu corona Virginum""^Delfino Thermignon\n (1861-1944)""^andante mosso"!mf! (B2 A2) G2 | %1
w: Je- su, co-|
w: Quo- cum- que|
w: Vir\- * tus,|
 c2- c2 B2 | (A2 d2) c2 | B6 | (e-e e2) d2 | (c2 =f2) e2 | d4 d2 | d6 |[M:3/4] d2 B2 G2 | c4 c2 | %10
w: ro\- * na|Vir\- * gi-|num,|quem * ma- ter|il\- * la|con- ci-|pit,|Quae so- la|Vir- go|
w: ten\- * dis,|Vir\- * gi-|nes|se- qu- un- tur,|at\- * que|lan- di-|bus,|post te ca-|nen- tes|
w: ho- nor, laus,|glo\- * ri-|a|De\- * * o|Pa- tri cum|Fi- li-|o,|san- cto si-|mul Pa-|
 B4 A2 | G6 | G2 G2 c2 | (B2 A2) G2 | (F2 BA) (GF) | !fermata!E6 || (c3 BAG | F4)"^," F2 | %18
w: par- tu-|rit:|haec vo- ta|cle\- * mens|ac\- * * ci\- *|pe.|A\- * * *|* men,|
w: cur- si-|tant,|hy- mno- sque|dul\- * ces|per\- * * so\- *|nant.|||
w: ra- cli-|to,|in sae- cu-|lo\- * rum|sae\- * * cu\- *|la.|||
 (B4 A2) | !fermata!^G6 |] %20
w: A\- *|men.|
w: ||
w: ||
V:2
!mf! (G2 F2) E2 | (E2 F2) G2 | F4 F2 | G6 | (G-G G2) ^G2 | A2- A2 A2 | B4 B2 | B6 | %8
w: Je- su, co-|ro\- * na|Vir- gi-|num,|quem * ma- ter|il\- * la|con- ci-|pit,|
w: Quo- cum- que|ten\- * dis,|Vir- gi-|nes|se- qu- un- tur,|at\- * que|lan- di-|bus|
w: Vir\- * tus,|ho- nor, laus,|glo\- ri-|a|De\- * * o|Pa- tri cum|Fl- li-|o,|
[M:3/4] B2 G2 G2 | (G2 F2) E2 | ^D4 D2 | E6 | E2 E2 E2 | (G2 F2) E2 | (E2 ^D2) D2 | !fermata!E6 || %16
w: Quae so- la|Vir\- * go|par- tu-|rit:|haec vo- ta|cle\- * mens|ac\- * ci-|pe.|
w: post te ca-|nen\- * tes|cur- si-|tant,|hy- mno- sque|dul\- * ces|per\- * so-|nant.|
w: san- cto si-|mul * Pa-|ra- cli-|to,|in sae- cu-|lo\- * rum|sae\- * cu-|la.|
 E6- | E2"^," ^D4 | ^D6 | !fermata!E6 |] %20
w: A\-|* men,|A-|men.|
w: ||||
w: ||||
V:3
!mf! E2- E2 E2 | A,2- A,2 G,2 | D4 D2 | E6 | C-C C2 E2 | (A2 D2) (E^F) | G4 G2 | G6 | %8
w: Je- su, co-|ro\- * na|Vir- gi-|num,|quem * ma- ter|il\- * la *|con- ci-|pit,|
w: Quo- cum- que|ten\- * dis,|Vir- gi-|nes|se- qu- un- tur,|at\- * que *|lan- di-|bus,|
w: Vir\- * tus,|ho- nor, laus,|glo- ri-|a|De\- * * o|Pa- tri cum *|Fl- li-|o,|
[M:3/4] G2 G2 E2 | A,4 A,2 | B,4 B,2 | C6 | C2 C2 A,2 | E4 E2 | B,4 B,2 | !fermata!E6 || (A,6 | %17
w: Quae so- la|Vir- go|par- tu-|rit:|haec vo- ta|cle- mens|ac- ci-|pe.|A\-|
w: post te ca-|nen- tes|cur- si-|tant,|hy- mno- sque|dul- ces|per- so-|nant.||
w: san- cto si-|mul Pa-|ra- cli-|to,|in sae- cu-|lo- rum|sae- cu-|la.||
 B,4)"^," B,2 | B,6 | !fermata!E6 |] %20
w: * men,|A-|men.|
w: |||
w: |||

